src/assets/img/tools/typescript.svg

<svg width="24" height="24" fill="none" xmlns="http://www.w3.org/2000/svg"><path d="M0 12v12h24V0H0v12zm19.341-.956c.61.152 1.074.423 1.501.865.221.236.549.666.575.77.008.03-1.036.73-1.668 1.123-.023.015-.115-.084-.217-.236-.31-.45-.633-.644-1.128-.678-.728-.05-1.196.331-1.192.967a.88.88 0 00.102.45c.16.331.458.53 1.39.933 1.719.74 2.454 1.227 2.911 1.92.51.773.625 2.008.278 2.926-.38.998-1.325 1.676-2.655 1.9-.411.073-1.386.062-1.828-.018-.964-.172-1.878-.648-2.442-1.273-.221-.243-.652-.88-.625-.925a1.58 1.58 0 01.22-.141c.108-.061.511-.294.892-.515l.69-.4.145.214c.202.308.643.731.91.872.766.404 1.817.347 2.335-.118a.882.882 0 00.313-.72c0-.278-.035-.4-.18-.61-.186-.266-.567-.49-1.649-.96-1.238-.533-1.771-.864-2.259-1.39a3.165 3.165 0 01-.659-1.2c-.091-.339-.114-1.189-.042-1.531.255-1.197 1.158-2.03 2.461-2.278.423-.08 1.406-.05 1.821.053zm-5.634 1.002l.008.983H10.59v8.876H8.38v-8.876H5.258v-.964c0-.534.011-.98.026-.99.012-.016 1.913-.024 4.217-.02l4.195.012.011.979z" fill="#007ACC"/></svg>

<svg width="24" height="24" viewBox="0 0 24 24" fill="none" xmlns="http://www.w3.org/2000/svg">
    <path d="M0 12V24H24V0H0V12ZM19.341 11.044C19.951 11.196 20.415 11.467 20.842 11.909C21.063 12.145 21.391 12.575 21.417 12.679C21.425 12.709 20.381 13.409 19.749 13.802C19.726 13.817 19.634 13.718 19.532 13.566C19.222 13.116 18.899 12.922 18.404 12.888C17.676 12.838 17.208 13.219 17.212 13.855C17.2054 14.0114 17.2406 14.1667 17.314 14.305C17.474 14.636 17.772 14.835 18.704 15.238C20.423 15.978 21.158 16.465 21.615 17.158C22.125 17.931 22.24 19.166 21.893 20.084C21.513 21.082 20.568 21.76 19.238 21.984C18.827 22.057 17.852 22.046 17.41 21.966C16.446 21.794 15.532 21.318 14.968 20.693C14.747 20.45 14.316 19.813 14.343 19.768C14.354 19.752 14.453 19.691 14.563 19.627C14.671 19.566 15.074 19.333 15.455 19.112L16.145 18.712L16.29 18.926C16.492 19.234 16.933 19.657 17.2 19.798C17.966 20.202 19.017 20.145 19.535 19.68C19.6392 19.5923 19.7216 19.4816 19.7759 19.3567C19.8302 19.2318 19.8549 19.096 19.848 18.96C19.848 18.682 19.813 18.56 19.668 18.35C19.482 18.084 19.101 17.86 18.019 17.39C16.781 16.857 16.248 16.526 15.76 16C15.4554 15.6529 15.2305 15.2433 15.101 14.8C15.01 14.461 14.987 13.611 15.059 13.269C15.314 12.072 16.217 11.239 17.52 10.991C17.943 10.911 18.926 10.941 19.341 11.044ZM13.707 12.046L13.715 13.029H10.59V21.905H8.38V13.029H5.258V12.065C5.258 11.531 5.269 11.085 5.284 11.075C5.296 11.059 7.197 11.051 9.501 11.055L13.696 11.067L13.707 12.046Z"
          fill="#007ACC"/>
</svg>
